!!!OTL: 1430. Reise nach Juetland.
!!!ODT: 1889
!!!ARE: Europa, Mitteleuropa, Deutschland; France, Elsass
!!!SCT: E1430A
!!!TXL: @@DE
!!!YEM: Copyright 1995, estate of Helmut Schaffrath.
**kern	**text
*ICvox	*
*M3/4	*
*k[b-e-]	*
*B-:	*
!LO:TX:a:t=Ruhig u. ernst.	!
!LO:TX:a:t=Var.	!
{4f	Die
=1	=1
4b-	Rei-
4b-	-ſe
4cc	nach
=2	=2
4dd	Süd-
4dd}	-land,
{8b-	o
8gg	wie
=3	=3
4.ff	fällt
8ee-	ſie
8dd	mir
8ff	ſo
=4	=4
2cc}	ſchwer!
{8cc	O
8dd	du
=5	=5
4.ee-	ein-
8gg	-ʒig
8ff	ſchö-
8ee-	-nes
=6	=6
4.dd	Mäd-
8cc}	-chen,
{8b-L	wir
8ddJ	.
=7	=7
4cc	ſehn
4b-	uns
4a	nicht
=8	=8
2ff;}	mehr!
{8cc	o
8dd	du
=9	=9
4.ee-	ein-
8gg	-ʒig
8ff	ſchö-
8dd	-nes
=10	=10
4.dd	Mäd-
8cc}	-chen,
{8b-L	wir
8ddJ	.
=11	=11
4cc	ſehn
4b-	uns
4a	nicht
=12	=12
2b-}	mehr.
==	==
!!!AGN: Staende -, Soldaten - Lied, Liebe, Abschied
!!!ONB: ESAC (Essen Associative Code) Database: ERK3
!!!AMT: simple triple
!!!AIN: vox
!!!EED: Helmut Schaffrath
!!!EEV: 1.0
!!!GTL: Staendelieder (Berufslieder). 1. Soldaten- und Kriegslieder. Soldatenlieder seit dem 30jaehr. Kriege.
!!!URL-scan: https://rosdok.uni-rostock.de/mcrviewer/recordIdentifier/rosdok_ppn745177999/iview2/phys_0293.iview2?x=-128.77276441889308&y=919.3699955039192&scale=0.5870222003877485&rotation=0&layout=singlePageLayout
!!!ENC: Anna Maria Matuszewska
!!!EEV: 2024/12/31
*-	*-
